!!!COM: Beethoven
!!!OTL: 13 Variationen uber "Es war einmal ein alter Mann" aus "Das rote Kappchen" von K. Ditters von Dittersdorf
!!!Variation: T d
**function	**harm	**kern	**kern	**kern
*M2/4	*M2/4	*staff3	*staff2	*staff1
*	*	*clefF4	*clefF4	*clefG2
*	*	*k[f#c#g#]	*k[f#c#g#]	*k[f#c#g#]
*	*	*M2/4	*M2/4	*M2/4
*	*	*A:	*A:	*A:
8D	8V6	8G# 8e	8r	8b'J
=	=	=14	=14	=14
4D	4I	8A 8e	2r	8cc#'L
.	.	8r	.	8ee'J
4D	4V/V	8B	.	8dd#'L
.	.	8r	.	8ff#'J
=	=	=15	=15	=15
4.D	4.V6	4G# 4B	2r	8ee'L
.	.	.	.	8gg#'J
.	.	8r	.	8ee'L
8D	8V6	8G# 8e	.	8b'J
=	=	=16	=16	=16
4D	4I	8A 8e	2r	8cc#'L
.	.	8r	.	8ee'J
4D	4V/V	8B	.	8dd#'L
.	.	8r	.	8ff#'J
=	=	=17	=17	=17
4.D	4.V6	4G# 4B	2r	8ee'L
.	.	.	.	8gg#'J
.	.	8r	.	8ee'L
8D	8V6	8G# 8e	.	8b'J
=	=	=18	=18	=18
4D	4I	8A 8e	2r	8cc#'L
.	.	8r	.	8ee'J
4D	4V/V	8B	.	8dd#'L
.	.	8r	.	8ff#'J
=	=	=19	=19	=19
4.D	4.V6	4G# 4B	2r	8ee'L
.	.	.	.	8gg#'J
.	.	8r	.	8ee'L
8D	8V6	8G# 8e	.	8b'J
=	=	=20	=20	=20
4D	4I	8A 8e	2r	8cc#'L
.	.	8r	.	8ee'J
4	4V/V	8B	.	8dd#'L
.	.	8r	.	8ff#'J
=	=	=21	=21	=21
4	4V	8G# 8B	2r	8ee'L
.	.	8r	.	8gg#'J
4	4V65/V	8D# 8B	.	8ff#'L
.	.	8r	.	8aa'J
=	=	=22	=22	=22
4	4V	8EL	2r	8gg#'L
.	.	8G#J	.	8ee'J
4	4V/V	8BL	.	8b'L
.	.	8BBJ	.	8dd#'J
=	=	=23	=23	=23
2	2r	2r;	2r;	2r;
=	=	=24	=24	=24
4.	4.V	4E 4e	4.r	4g# 4ee
.	.	8r	.	8r
*-	*-	*-	*-	*-
